!!!COM: Alexandros
!!!OTL: ワタリドリ
**kern	**dynam	**kern	**dynam	**kern	**dynam	**kern	**dynam	**kern	**dynam
*part5	*part5	*part4	*part4	*part3	*part3	*part2	*part2	*part1	*part1
*staff5	*	*staff4	*	*staff3	*	*staff2	*	*staff1	*
*I"バリトンサックス	*	*I"テナーサックス	*	*I"アルトサックス	*	*I"アルトサックス	*	*I"Lead Vocal	*
*I'Bar. Sax.	*	*I'T. Sax.	*	*I'A. Sax.	*	*I'A. Sax.	*	*I'Pno.	*
*clefG2	*	*clefG2	*	*clefG2	*	*clefG2	*	*clefG2	*
*ITrd5c9	*	*ITrd1c2	*	*ITrd5c9	*	*ITrd5c9	*	*	*
*k[f#c#g#]	*	*k[f#c#g#]	*	*k[f#c#g#]	*	*k[f#c#g#]	*	*k[f#c#g#]	*
*M4/4	*	*M4/4	*	*M4/4	*	*M4/4	*	*M4/4	*
*MM134	*	*MM134	*	*MM134	*	*MM134	*	*MM134	*
=1	=1	=1	=1	=1	=1	=1	=1	=1	=1
1r	.	8.aL	mf	8.eL	mf	8.aL	mf	1r	.
.	.	[16aJk	.	[16eJk	.	[16aJk	.	.	.
.	.	8aL]	.	8eL]	.	8aL]	.	.	.
.	.	8aJ	.	8eJ	.	16bL	.	.	.
.	.	.	.	.	.	16cc#JJ	.	.	.
.	.	8.aL	.	8.eL	.	8.eeL	.	.	.
.	.	[16aJk	.	[16eJk	.	[16eeJk	.	.	.
.	.	8aL]	.	8eL]	.	8eeL]	.	.	.
.	.	8aJ	.	8eJ	.	16cc#L	.	.	.
.	.	.	.	.	.	16bJJ	.	.	.
=2	=2	=2	=2	=2	=2	=2	=2	=2	=2
1r	.	8.ddL	.	8.f#L	.	8.aL	.	1r	.
.	.	[16ddJk	.	[16f#Jk	.	[16aJk	.	.	.
.	.	8ddL]	.	8f#L]	.	8aL]	.	.	.
.	.	8ddJ	.	8f#J	.	16bL	.	.	.
.	.	.	.	.	.	16cc#JJ	.	.	.
.	.	8.ddL	.	8.aL	.	8.eeL	.	.	.
.	.	[16ddJk	.	[16aJk	.	[16eeJk	.	.	.
.	.	8ddL]	.	8aL]	.	8eeL]	.	.	.
.	.	8ddJ	.	8aJ	.	16cc#L	.	.	.
.	.	.	.	.	.	16bJJ	.	.	.
=3	=3	=3	=3	=3	=3	=3	=3	=3	=3
1r	.	8.ff#L	.	8.aL	.	8.aL	.	1r	.
.	.	[16ff#Jk	.	[16aJk	.	[16aJk	.	.	.
.	.	8ff#L]	.	8aL]	.	8aL]	.	.	.
.	.	8ff#J	.	8aJ	.	16bL	.	.	.
.	.	.	.	.	.	16cc#JJ	.	.	.
.	.	8.ff#L	.	8.cc#L	.	8.eeL	.	.	.
.	.	[16ff#Jk	.	[16cc#Jk	.	[16eeJk	.	.	.
.	.	8ff#L]	.	8cc#L]	.	8eeL]	.	.	.
.	.	8ff#J	.	8cc#J	.	16cc#L	.	.	.
.	.	.	.	.	.	16bJJ	.	.	.
=4	=4	=4	=4	=4	=4	=4	=4	=4	=4
1r	.	8.ddL	.	8.f#L	.	8.aL	.	1r	.
.	.	[16ddJk	.	[16f#Jk	.	[16aJk	.	.	.
.	.	8ddL]	.	8f#L]	.	8aL]	.	.	.
.	.	8ddJ	.	8f#J	.	16bL	.	.	.
.	.	.	.	.	.	16eeJJ	.	.	.
.	.	8.eeL	.	8.g#L	.	2cc#	.	.	.
.	.	[16eeJk	.	[16g#Jk	.	.	.	.	.
.	.	8eeL]	.	8g#L]	.	.	.	.	.
.	.	8eeJ	.	8g#J	.	.	.	.	.
=5	=5	=5	=5	=5	=5	=5	=5	=5	=5
4A	mf	8.aL	.	8.eL	.	8.aL	.	1r	.
.	.	[16aJk	.	[16eJk	.	[16aJk	.	.	.
4A	.	8aL]	.	8eL]	.	8aL]	.	.	.
.	.	8aJ	.	8eJ	.	16bL	.	.	.
.	.	.	.	.	.	16cc#JJ	.	.	.
4A	.	4a	.	8.eL	.	8.eeL	.	.	.
.	.	.	.	[16eJk	.	[16eeJk	.	.	.
4A	.	4a	.	8eL]	.	8eeL]	.	.	.
.	.	.	.	8eJ	.	16cc#L	.	.	.
.	.	.	.	.	.	16bJJ	.	.	.
=6	=6	=6	=6	=6	=6	=6	=6	=6	=6
4d	.	2.ff#	.	8.f#L	.	8.aL	.	1r	.
.	.	.	.	[16f#Jk	.	[16aJk	.	.	.
4d	.	.	.	8f#L]	.	8aL]	.	.	.
.	.	.	.	8f#J	.	16bL	.	.	.
.	.	.	.	.	.	16cc#JJ	.	.	.
4d	.	.	.	8.aL	.	8.eeL	.	.	.
.	.	.	.	[16aJk	.	[16eeJk	.	.	.
4d	.	4gg#	.	8aL]	.	8eeL]	.	.	.
.	.	.	.	8aJ	.	16cc#L	.	.	.
.	.	.	.	.	.	16bJJ	.	.	.
=7	=7	=7	=7	=7	=7	=7	=7	=7	=7
4F#	.	2aa	.	8.aL	.	8.aL	.	1r	.
.	.	.	.	[16aJk	.	[16aJk	.	.	.
4F#	.	.	.	8aL]	.	8aL]	.	.	.
.	.	.	.	8aJ	.	16bL	.	.	.
.	.	.	.	.	.	16cc#JJ	.	.	.
4F#	.	8.aaL	.	8.cc#L	.	8.eeL	.	.	.
.	.	[16gg#Jk	.	[16cc#Jk	.	[16eeJk	.	.	.
4F#	.	8gg#L]	.	8cc#L]	.	8eeL]	.	.	.
.	.	8ff#J	.	8cc#J	.	16cc#L	.	.	.
.	.	.	.	.	.	16bJJ	.	.	.
=8	=8	=8	=8	=8	=8	=8	=8	=8	=8
4d	.	2ee	.	8.f#L	.	8.aL	.	2r	.
.	.	.	.	[16f#Jk	.	[16aJk	.	.	.
4d	.	.	.	8f#L]	.	8aL]	.	.	.
.	.	.	.	8f#J	.	16bL	.	.	.
.	.	.	.	.	.	16eeJJ	.	.	.
4e	.	8r	.	4f#	.	4cc#	.	8r	.
.	.	8c#L	mf	.	.	.	.	8C#L	mf
4r	.	8a	.	4r	.	4r	.	8A	.
.	.	8g#J	.	.	.	.	.	8G#J	.
=9||	=9||	=9||	=9||	=9||	=9||	=9||	=9||	=9||	=9||
4F#	.	8.aL	.	[1f#	mp	[1a	mp	8.AL	.
.	.	[16g#Jk	.	.	.	.	.	[16G#Jk	.
4F#	.	8g#L]	.	.	.	.	.	8G#L]	.
.	.	[8aJ	.	.	.	.	.	[8AJ	.
4F#	.	8aL]	.	.	.	.	.	8AL]	.
.	.	8g#	.	.	.	.	.	8G#	.
4F#	.	8a	.	.	.	.	.	8A	.
.	.	8g#J	.	.	.	.	.	8G#J	.
=10	=10	=10	=10	=10	=10	=10	=10	=10	=10
4d	.	8.aL	.	1f#]	.	1a]	.	8.AL	.
.	.	[16g#Jk	.	.	.	.	.	[16G#Jk	.
4d	.	8g#L]	.	.	.	.	.	8G#L]	.
.	.	[8aJ	.	.	.	.	.	[8AJ	.
4d	.	8aL]	.	.	.	.	.	8AL]	.
.	.	8g#	.	.	.	.	.	8G#	.
4d	.	8a	.	.	.	.	.	8A	.
.	.	8g#J	.	.	.	.	.	8G#J	.
=11	=11	=11	=11	=11	=11	=11	=11	=11	=11
4E	.	8.aL	.	[1e	.	1g#	.	8.AL	.
.	.	[16g#Jk	.	.	.	.	.	[16G#Jk	.
4E	.	8g#L]	.	.	.	.	.	8G#L]	.
.	.	[8f#J	.	.	.	.	.	[8F#J	.
4E	.	8f#]	.	.	.	.	.	8F#]	.
.	.	4e	.	.	.	.	.	4E	.
4E	.	.	.	.	.	.	.	.	.
.	.	8e	.	.	.	.	.	8E	.
=12	=12	=12	=12	=12	=12	=12	=12	=12	=12
4A	.	4.e	.	1e]	.	[1cc#	.	4.E	.
4A	.	.	.	.	.	.	.	.	.
.	.	8d	.	.	.	.	.	8D	.
4G#	.	4c#	.	.	.	.	.	4C#	.
4G#	.	8r	.	.	.	.	.	8r	.
.	.	8c#	.	.	.	.	.	8C#	.
=13	=13	=13	=13	=13	=13	=13	=13	=13	=13
4F#	.	8.aL	.	1f#	.	1cc#]	.	8.AL	.
.	.	[16g#Jk	.	.	.	.	.	[16G#Jk	.
4F#	.	8g#L]	.	.	.	.	.	8G#L]	.
.	.	[8aJ	.	.	.	.	.	[8AJ	.
4F#	.	8aL]	.	.	.	.	.	8AL]	.
.	.	8g#	.	.	.	.	.	8G#	.
4F#	.	8a	.	.	.	.	.	8A	.
.	.	8g#J	.	.	.	.	.	8G#J	.
=14	=14	=14	=14	=14	=14	=14	=14	=14	=14
4E	.	8.aL	.	1g#	.	1b	.	8.AL	.
.	.	[16bJk	.	.	.	.	.	[16BJk	.
4E	.	8bL]	.	.	.	.	.	8BL]	.
.	.	[8eeJ	.	.	.	.	.	[8eJ	.
4E	.	8eeL]	.	.	.	.	.	8eL]	.
.	.	8ff#	.	.	.	.	.	8f#	.
4E	.	8ee	.	.	.	.	.	8e	.
.	.	8ddJ	.	.	.	.	.	8dJ	.
=15	=15	=15	=15	=15	=15	=15	=15	=15	=15
4d	.	8.cc#L	.	2f#	.	2a	.	8.c#L	.
.	.	[16ddJk	.	.	.	.	.	[16dJk	.
4d	.	8ddL]	.	.	.	.	.	8dL]	.
.	.	8cc#J	.	.	.	.	.	8c#J	.
4e	.	8.bL	.	2g#	.	2b	.	8.BL	.
.	.	[16cc#Jk	.	.	.	.	.	[16c#Jk	.
4e	.	8cc#L]	.	.	.	.	.	8c#L]	.
.	.	8bJ	.	.	.	.	.	8BJ	.
=16	=16	=16	=16	=16	=16	=16	=16	=16	=16
4A	.	2a	.	2a	.	2cc#	.	2A	.
4A	.	.	.	.	.	.	.	.	.
4A	.	2r	.	8r	.	8r	.	8r	.
.	.	.	.	8AL	mf	4r	.	8AL	mf
4A	.	.	.	8A	.	.	.	8A	.
.	.	.	.	8eJ	.	8a	mf	8eJ	.
=17||	=17||	=17||	=17||	=17||	=17||	=17||	=17||	=17||	=17||
4d	.	1a	mp	8r	.	8r	.	8r	.
.	.	.	.	8eL	.	8aL	.	8eL	.
4d	.	.	.	8e	.	8a	.	8e	.
.	.	.	.	8eJ	.	8aJ	.	8eJ	.
4d	.	.	.	8r	.	8r	.	8r	.
.	.	.	.	8AL	.	4r	.	8AL	.
4d	.	.	.	8A	.	.	.	8A	.
.	.	.	.	8eJ	.	8g#	.	8eJ	.
=18	=18	=18	=18	=18	=18	=18	=18	=18	=18
4e	.	1b	.	8r	.	8r	.	8r	.
.	.	.	.	8eL	.	8g#L	.	8eL	.
4e	.	.	.	8e	.	8g#	.	8e	.
.	.	.	.	8eJ	.	8g#J	.	8eJ	.
4e	.	.	.	8r	.	2r	.	8r	.
.	.	.	.	8dL	.	.	.	8dL	.
4e	.	.	.	8c#	.	.	.	8c#	.
.	.	.	.	8dJ	.	.	.	8dJ	.
=19	=19	=19	=19	=19	=19	=19	=19	=19	=19
4c#	.	8.eL	.	8.c#L	.	2g#	mp	8.c#L	.
.	.	[16eJk	.	[16c#Jk	.	.	.	[16c#Jk	.
4c#	.	8eL]	.	8c#L]	.	.	.	8c#L]	.
.	.	8eJ	.	8c#J	.	.	.	8c#J	.
4c#	.	8.eL	.	8.c#L	.	2g#	.	8.c#L	.
.	.	[16eJk	.	[16BJk	.	.	.	[16BJk	.
4c#	.	8eL]	.	8BL]	.	.	.	8BL]	.
.	.	8eJ	.	8AJ	.	.	.	8AJ	.
=20	=20	=20	=20	=20	=20	=20	=20	=20	=20
4f#	.	8.aL	.	2A	.	8.f#L	.	2A	.
.	.	[16bJk	.	.	.	[16f#Jk	.	.	.
4f#	.	8bL]	.	.	.	8f#L]	.	.	.
.	.	[8cc#J	.	.	.	[8f#J	.	.	.
4f#	.	8cc#]	.	8r	.	4.f#]	.	8r	.
.	.	4b	.	8F#L	.	.	.	8F#L	.
4f#	.	.	.	8A	.	.	.	8A	.
.	.	[8a	.	[8c#J	.	[8f#	.	[8c#J	.
=21	=21	=21	=21	=21	=21	=21	=21	=21	=21
4d	.	1a]	.	8c#L]	.	1f#]	.	8c#L]	.
.	.	.	.	8A	.	.	.	8A	.
4d	.	.	.	8F#J	.	.	.	8F#J	.
.	.	.	.	4A	.	.	.	4A	.
4d	.	.	.	.	.	.	.	.	.
.	.	.	.	8F#L	.	.	.	8F#L	.
4d	.	.	.	8A	.	.	.	8A	.
.	.	.	.	8c#J	.	.	.	8c#J	.
=22	=22	=22	=22	=22	=22	=22	=22	=22	=22
4e	.	1b	.	8r	.	1g#	.	8r	.
.	.	.	.	8AL	.	.	.	8AL	.
4e	.	.	.	8F#	.	.	.	8F#	.
.	.	.	.	[8AJ	.	.	.	[8AJ	.
4e	.	.	.	8A]	.	.	.	8A]	.
.	.	.	.	4B	.	.	.	4B	.
4e	.	.	.	.	.	.	.	.	.
.	.	.	.	8A	.	.	.	8A	.
=23	=23	=23	=23	=23	=23	=23	=23	=23	=23
8.AL	.	8.cc#L	mf	1A	.	8.eL	mf	1A	.
[16AJk	.	[16cc#Jk	.	.	.	[16eJk	.	.	.
8AL]	.	8cc#L]	.	.	.	8eL]	.	.	.
8AJ	.	8cc#J	.	.	.	8eJ	.	.	.
8.eL	.	8.bL	.	.	.	8.eL	.	.	.
[16eJk	.	[16bJk	.	.	.	[16eJk	.	.	.
8eL]	.	8bL]	.	.	.	8eL]	.	.	.
8eJ	.	8bJ	.	.	.	8eJ	.	.	.
=24	=24	=24	=24	=24	=24	=24	=24	=24	=24
8.AL	.	8.cc#L	.	8.AL	.	2r	.	2r	.
[16AJk	.	[16cc#Jk	.	[16AJk	.	.	.	.	.
8AL]	.	8cc#L]	.	8AL]	.	.	.	.	.
8A'J	.	8cc#'J	.	8A'J	.	.	.	.	.
4r	.	2r	.	4c#	.	4f#	f	4f#	f
4r	.	.	.	4e	.	4g#	.	4g#	.
=25!|:	=25!|:	=25!|:	=25!|:	=25!|:	=25!|:	=25!|:	=25!|:	=25!|:	=25!|:
4F#	f	8.eeL	f	8.c#L	f	8.aL	f	8.aL	f
.	.	[16eeJk	.	[16c#Jk	.	[16aJk	.	[16aJk	.
4F#	.	8eeL]	.	8c#L]	.	8aL]	.	8aL]	.
.	.	8eeJ	.	8c#J	.	8aJ	.	8aJ	.
4F#	.	2ee	.	2c#	.	8.aL	.	8.aL	.
.	.	.	.	.	.	[16cc#Jk	.	[16cc#Jk	.
4F#	.	.	.	.	.	8cc#L]	.	8cc#L]	.
.	.	.	.	.	.	8eJ	.	8eJ	.
=26	=26	=26	=26	=26	=26	=26	=26	=26	=26
4d	.	8.f#L	.	8.AL	.	4f#	.	4f#	.
.	.	[16g#Jk	.	[16BJk	.	.	.	.	.
4d	.	8g#L]	.	8BL]	.	4r	.	4r	.
.	.	8aJ	.	8c#J	.	.	.	.	.
4d	.	2f#	.	2A	.	8r	.	8r	.
.	.	.	.	.	.	4f#	.	4f#	.
4d	.	.	.	.	.	.	.	.	.
.	.	.	.	.	.	8e	.	8e	.
=27	=27	=27	=27	=27	=27	=27	=27	=27	=27
4A	.	8.aL	.	8.c#L	.	8.AL	.	8.AL	.
.	.	[16aJk	.	[16c#Jk	.	[16AJk	.	[16AJk	.
4A	.	8aL]	.	8c#L]	.	8AL]	.	8AL]	.
.	.	8aJ	.	8c#J	.	8AJ	.	8AJ	.
4A	.	2a	.	2c#	.	8r	.	8r	.
.	.	.	.	.	.	4cc#	.	4cc#	.
4A	.	.	.	.	.	.	.	.	.
.	.	.	.	.	.	8dd	.	8cc##X	.
=28	=28	=28	=28	=28	=28	=28	=28	=28	=28
4e	.	8.g#L	.	8.BL	.	4cc#	.	4cc#	.
.	.	[16g#Jk	.	[16BJk	.	.	.	.	.
4e	.	8g#L]	.	8BL]	.	(8bL	.	(8bL	.
.	.	8g#J	.	8BJ	.	8f#'J)	.	8f#'J)	.
4c#	.	4e	.	4c#	.	4f#	.	4f#	.
4c#	.	4g#	.	4e	.	4g#	.	4g#	.
=29	=29	=29	=29	=29	=29	=29	=29	=29	=29
4F#	.	8.eeL	.	8.c#L	.	8.aL	.	8.aL	.
.	.	[16eeJk	.	[16c#Jk	.	[16aJk	.	[16aJk	.
4F#	.	8eeL]	.	8c#L]	.	8aL]	.	8aL]	.
.	.	8eeJ	.	8c#J	.	8aJ	.	8aJ	.
4F#	.	2ee	.	2c#	.	8.aL	.	8.aL	.
.	.	.	.	.	.	[16cc#Jk	.	[16cc#Jk	.
4F#	.	.	.	.	.	8cc#L]	.	8cc#L]	.
.	.	.	.	.	.	8eJ	.	8eJ	.
=30	=30	=30	=30	=30	=30	=30	=30	=30	=30
4d	.	8.f#L	.	8.AL	.	4f#	.	4f#	.
.	.	[16g#Jk	.	[16BJk	.	.	.	.	.
4d	.	8g#L]	.	8BL]	.	4r	.	4r	.
.	.	8aJ	.	8c#J	.	.	.	.	.
4d	.	2f#	.	2A	.	8r	.	8r	.
.	.	.	.	.	.	4f#	.	4f#	.
4d	.	.	.	.	.	.	.	.	.
.	.	.	.	.	.	8e	.	8e	.
=31	=31	=31	=31	=31	=31	=31	=31	=31	=31
4A	.	8.aL	.	8.c#L	.	8.AL	.	8.AL	.
.	.	[16aJk	.	[16c#Jk	.	[16AJk	.	[16AJk	.
4A	.	8aL]	.	8c#L]	.	8AL]	.	8AL]	.
.	.	8aJ	.	8c#J	.	8AJ	.	8AJ	.
4A	.	2a	.	2c#	.	8r	.	8r	.
.	.	.	.	.	.	4cc#	.	4cc#	.
4A	.	.	.	.	.	.	.	.	.
.	.	.	.	.	.	8dd	.	8dd	.
=32	=32	=32	=32	=32	=32	=32	=32	=32	=32
4e	.	8.g#L	.	8.BL	.	4.cc#	.	4.cc#	.
.	.	[16g#Jk	.	[16BJk	.	.	.	.	.
4e	.	8g#L]	.	8BL]	.	.	.	.	.
.	.	8g#J	.	8BJ	.	8b	.	8b	.
4c#	.	2e	.	2B	.	4b	.	4b	.
4c#	.	.	.	.	.	8r	.	8r	.
.	.	.	.	.	.	8b	.	8b	.
=33	=33	=33	=33	=33	=33	=33	=33	=33	=33
4F#	.	8.g#L	.	8.c#L	.	4.cc#	.	4.cc#	.
.	.	[16aJk	.	[16c#Jk	.	.	.	.	.
4F#	.	8aL]	.	8c#L]	.	.	.	.	.
.	.	[8eeJ	.	[8c#J	.	[8a	.	[8a	.
4F#	.	8ee]	.	8c#]	.	4a]	.	4a]	.
.	.	4b	.	4c#	.	.	.	.	.
4F#	.	.	.	.	.	[4ee	.	[4ee	.
.	.	8a	.	8c#	.	.	.	.	.
=34	=34	=34	=34	=34	=34	=34	=34	=34	=34
4d	.	8.g#L	.	8.c#L	.	4ee]	.	4ee]	.
.	.	[16aJk	.	[16c#Jk	.	.	.	.	.
4d	.	8aL]	.	8c#L]	.	8ddL	.	8ddL	.
.	.	[8eeJ	.	[8c#J	.	8cc#J	.	8cc#J	.
4d	.	8ee]	.	8c#]	.	4a	.	4a	.
.	.	4b	.	4c#	.	.	.	.	.
4d	.	.	.	.	.	(8f#L	.	(8f#L	.
.	.	8a	.	8c#	.	8eJ)	.	8eJ)	.
=35	=35	=35	=35	=35	=35	=35	=35	=35	=35
4A	.	8.g#L	.	8.c#L	.	2e	.	2e	.
.	.	[16aJk	.	[16c#Jk	.	.	.	.	.
4A	.	8aL]	.	8c#L]	.	.	.	.	.
.	.	[8eeJ	.	[8c#J	.	.	.	.	.
4A	.	8ee]	.	8c#]	.	8r	.	8r	.
.	.	4b	.	4c#	.	8eL	.	8eL	.
4A	.	.	.	.	.	8b	.	8b	.
.	.	8a	.	8e	.	8aJ	.	8aJ	.
=36	=36	=36	=36	=36	=36	=36	=36	=36	=36
4E	.	8.g#L	.	8.g#L	.	4.b	.	4.b	.
.	.	[16aJk	.	[16g#Jk	.	.	.	.	.
4E	.	8aL]	.	8g#L]	.	.	.	.	.
.	.	[8eeJ	.	[8g#J	.	[8cc#	.	[8cc#	.
4c#	.	8ee]	.	8g#]	.	4.cc#]	.	4.cc#]	.
.	.	4b	.	4g#	.	.	.	.	.
4c#	.	.	.	.	.	.	.	.	.
.	.	8a	.	8g#	.	8r	.	8r	.
=37	=37	=37	=37	=37	=37	=37	=37	=37	=37
4F#	.	8.g#L	.	8.c#L	.	4.cc#	.	4.cc#	.
.	.	[16aJk	.	[16c#Jk	.	.	.	.	.
4F#	.	8aL]	.	8c#L]	.	.	.	.	.
.	.	[8eeJ	.	[8c#J	.	[8a	.	[8a	.
4F#	.	8ee]	.	8c#]	.	4a]	.	4a]	.
.	.	4b	.	4c#	.	.	.	.	.
4F#	.	.	.	.	.	[4ee	.	[4ee	.
.	.	8a	.	8c#	.	.	.	.	.
=38	=38	=38	=38	=38	=38	=38	=38	=38	=38
4d	.	8.g#L	.	8.c#L	.	4ee]	.	4ee]	.
.	.	[16aJk	.	[16c#Jk	.	.	.	.	.
4d	.	8aL]	.	8c#L]	.	8ddL	.	8ddL	.
.	.	[8eeJ	.	[8c#J	.	8cc#J	.	8cc#J	.
4d	.	8ee]	.	8c#]	.	4a	.	4a	.
.	.	4b	.	4c#	.	.	.	.	.
4d	.	.	.	.	.	8f#L	.	8f#L	.
.	.	8a	.	8c#	.	8eJ	.	8eJ	.
=39	=39	=39	=39	=39	=39	=39	=39	=39	=39
4A	.	8.g#L	.	8.c#L	.	2e	.	2e	.
.	.	[16aJk	.	[16c#Jk	.	.	.	.	.
4A	.	8aL]	.	8c#L]	.	.	.	.	.
.	.	[8eeJ	.	[8c#J	.	.	.	.	.
4A	.	8ee]	.	8c#]	.	8r	.	8r	.
.	.	4b	.	4c#	.	8eL	.	8eL	.
4A	.	.	.	.	.	8b	.	8b	.
.	.	8a	.	8e	.	8aJ	.	8aJ	.
=40	=40	=40	=40	=40	=40	=40	=40	=40	=40
4E	.	8.g#L	.	8.g#L	.	4b	.	4b	.
.	.	[16aJk	.	[16g#Jk	.	.	.	.	.
4E	.	8aL]	.	8g#L]	.	4a	.	4a	.
.	.	[8eeJ	.	[8g#J	.	.	.	.	.
4E	.	4.ee]	.	4.g#]	.	8cc#L	.	8cc#L	.
.	.	.	.	.	.	8aJ	.	8aJ	.
4E	.	.	.	.	.	4a	.	4a	.
.	.	8r	.	8r	.	.	.	.	.
=41||	=41||	=41||	=41||	=41||	=41||	=41||	=41||	=41||	=41||
1r	.	4.ff#	mf	4.d	mp	1a	.	1a	.
.	.	8ff#	.	[8d	.	.	.	.	.
.	.	8ff#L	.	2d]	.	.	.	.	.
.	.	8ee	.	.	.	.	.	.	.
.	.	8cc#	.	.	.	.	.	.	.
.	.	8eeJ	.	.	.	.	.	.	.
=42	=42	=42	=42	=42	=42	=42	=42	=42	=42
1r	.	4.cc#	.	4.A	.	4.e	mp	1r	.
.	.	8cc#	.	[8A	.	[8e	.	.	.
.	.	8cc#L	.	2A]	.	2e]	.	.	.
.	.	8b	.	.	.	.	.	.	.
.	.	8a	.	.	.	.	.	.	.
.	.	8bJ	.	.	.	.	.	.	.
=43	=43	=43	=43	=43	=43	=43	=43	=43	=43
1r	.	4.b	.	4.e	.	4.g#	.	1r	.
.	.	8b	.	[8e	.	[8g#	.	.	.
.	.	8cc#L	.	2e]	.	2g#]	.	.	.
.	.	8b	.	.	.	.	.	.	.
.	.	8a	.	.	.	.	.	.	.
.	.	8g#J	.	.	.	.	.	.	.
=44	=44	=44	=44	=44	=44	=44	=44	=44	=44
1r	.	4.f#	.	4.r	.	4.c#	.	1r	.
.	.	[8f#	mp	8g#	mf	[8c#	.	.	.
.	.	2f#]	.	8aL	.	2c#]	.	.	.
.	.	.	.	8g#	.	.	.	.	.
.	.	.	.	8f#	.	.	.	.	.
.	.	.	.	8eJ	.	.	.	.	.
=45	=45	=45	=45	=45	=45	=45	=45	=45	=45
1r	.	4.dd	.	4.f#	.	4.a	.	1r	.
.	.	[8dd	.	8f#	.	[8a	.	.	.
.	.	2dd]	.	8f#L	.	2a]	.	.	.
.	.	.	.	8e	.	.	.	.	.
.	.	.	.	8c#	.	.	.	.	.
.	.	.	.	8eJ	.	.	.	.	.
=46	=46	=46	=46	=46	=46	=46	=46	=46	=46
1r	.	4.a	.	4.e	.	4.c#	.	1r	.
.	.	[8a	.	8e	.	[8c#	.	.	.
.	.	2a]	.	8eL	.	2c#]	.	.	.
.	.	.	.	8c#	.	.	.	.	.
.	.	.	.	8e	.	.	.	.	.
.	.	.	.	8f#J	.	.	.	.	.
=47	=47	=47	=47	=47	=47	=47	=47	=47	=47
1r	.	4.e	.	4.g#	.	4.e	.	1r	.
.	.	[8e	.	8g#	.	[8e	.	.	.
.	.	2e]	.	8aL	.	2e]	.	.	.
.	.	.	.	8g#	.	.	.	.	.
.	.	.	.	8a	.	.	.	.	.
.	.	.	.	8bJ	.	.	.	.	.
=48	=48	=48	=48	=48	=48	=48	=48	=48	=48
1r	.	4.a	mf	2cc#	.	2r	.	2r	.
.	.	8cc#	.	.	.	.	.	.	.
.	.	8ddL	.	2r	.	4c#	f	4c#	f
.	.	8cc#	.	.	.	.	.	.	.
.	.	8b	.	.	.	4e	.	4e	.
.	.	8aJ	.	.	.	.	.	.	.
=49	=49	=49	=49	=49	=49	=49	=49	=49	=49
4d	mf	[1a	.	1A	mf	4.f#	.	4.f#	.
4d	.	.	.	.	.	.	.	.	.
.	.	.	.	.	.	8f#	.	8f#	.
4d	.	.	.	.	.	8f#L	.	8f#L	.
.	.	.	.	.	.	8e	.	8e	.
4d	.	.	.	.	.	8c#	.	8c#	.
.	.	.	.	.	.	[8eJ	.	[8eJ	.
=50	=50	=50	=50	=50	=50	=50	=50	=50	=50
4A	.	4a]	.	1c#	.	2e]	.	2e]	.
4A	.	8r	.	.	.	.	.	.	.
.	.	8cc#	.	.	.	.	.	.	.
4A	.	8ddL	.	.	.	8r	.	8r	.
.	.	8cc#	.	.	.	8c#L	.	8c#L	.
4A	.	8b	.	.	.	8d	.	8d	.
.	.	8aJ	.	.	.	8c#J	.	8c#J	.
=51	=51	=51	=51	=51	=51	=51	=51	=51	=51
4c#	.	1e	.	1G#	.	4.B	.	4.B	.
4c#	.	.	.	.	.	.	.	.	.
.	.	.	.	.	.	8B	.	8B	.
4c#	.	.	.	.	.	8BL	.	8BL	.
.	.	.	.	.	.	8A	.	8A	.
4c#	.	.	.	.	.	8A	.	8A	.
.	.	.	.	.	.	[8c#J	.	[8c#J	.
=52	=52	=52	=52	=52	=52	=52	=52	=52	=52
4f#	.	4a	.	1A	.	4.c#]	.	4.c#]	.
4f#	.	8r	.	.	.	.	.	.	.
.	.	8cc#	.	.	.	8r	.	8r	.
4f#	.	8ddL	.	.	.	4c#	.	4c#	.
.	.	8cc#	.	.	.	.	.	.	.
4e	.	8b	.	.	.	4e	.	4e	.
.	.	8aJ	.	.	.	.	.	.	.
=53	=53	=53	=53	=53	=53	=53	=53	=53	=53
4d	.	[1a	.	1A	.	4.f#	.	4.f#	.
4d	.	.	.	.	.	.	.	.	.
.	.	.	.	.	.	8f#	.	8f#	.
4d	.	.	.	.	.	8f#L	.	8f#L	.
.	.	.	.	.	.	8g#	.	8g#	.
4d	.	.	.	.	.	8f#	.	8f#	.
.	.	.	.	.	.	[8eJ	.	[8eJ	.
=54	=54	=54	=54	=54	=54	=54	=54	=54	=54
4A	.	4a]	.	2c#	.	8eL]	.	8eL]	.
.	.	.	.	.	.	8c#	.	8c#	.
4A	.	8r	.	.	.	8a	.	8a	.
.	.	8cc#	.	.	.	8c#J	.	8c#J	.
4A	.	8b	.	8e	.	8a	.	8a	.
.	.	4b	.	4e	.	4a	.	4a	.
4A	.	.	.	.	.	.	.	.	.
.	.	[8b	.	[8e	.	[8g#	.	[8g#	.
=55	=55	=55	=55	=55	=55	=55	=55	=55	=55
4e	.	1b_	.	1e_	.	1g#_	.	1g#_	.
4e	.	.	.	.	.	.	.	.	.
4e	.	.	.	.	.	.	.	.	.
4e	.	.	.	.	.	.	.	.	.
=56	=56	=56	=56	=56	=56	=56	=56	=56	=56
4e	.	4.b]	.	4.e]	.	4.g#]	.	4.g#]	.
4e	.	.	.	.	.	.	.	.	.
.	.	8f#	.	8f#	.	8f#	.	8f#	.
4e	.	4g#	.	4g#	.	4g#	.	4g#	.
4e	.	4b	.	4b	.	4b	.	4b	.
=57||	=57||	=57||	=57||	=57||	=57||	=57||	=57||	=57||	=57||
4A	f	8.aL	f	8.eL	f	8.aL	f	1a	.
.	.	[16aJk	.	[16eJk	.	[16aJk	.	.	.
4A	.	8aL]	.	8eL]	.	8aL]	.	.	.
.	.	8aJ	.	8eJ	.	16bL	.	.	.
.	.	.	.	.	.	16cc#JJ	.	.	.
4A	.	4a	.	8.eL	.	8.eeL	.	.	.
.	.	.	.	[16eJk	.	[16eeJk	.	.	.
4A	.	4a	.	8eL]	.	8eeL]	.	.	.
.	.	.	.	8eJ	.	16cc#L	.	.	.
.	.	.	.	.	.	16bJJ	.	.	.
=58	=58	=58	=58	=58	=58	=58	=58	=58	=58
4d	.	2.ff#	.	8.f#L	.	8.aL	.	1r	.
.	.	.	.	[16f#Jk	.	[16aJk	.	.	.
4d	.	.	.	8f#L]	.	8aL]	.	.	.
.	.	.	.	8f#J	.	16bL	.	.	.
.	.	.	.	.	.	16cc#JJ	.	.	.
4d	.	.	.	8.aL	.	8.eeL	.	.	.
.	.	.	.	[16aJk	.	[16eeJk	.	.	.
4d	.	4gg#	.	8aL]	.	8eeL]	.	.	.
.	.	.	.	8aJ	.	16cc#L	.	.	.
.	.	.	.	.	.	16bJJ	.	.	.
=59	=59	=59	=59	=59	=59	=59	=59	=59	=59
4F#	.	2aa	.	8.aL	.	8.aL	.	1r	.
.	.	.	.	[16aJk	.	[16aJk	.	.	.
4F#	.	.	.	8aL]	.	8aL]	.	.	.
.	.	.	.	8aJ	.	16bL	.	.	.
.	.	.	.	.	.	16cc#JJ	.	.	.
4F#	.	8.aaL	.	8.cc#L	.	8.eeL	.	.	.
.	.	[16gg#Jk	.	[16cc#Jk	.	[16eeJk	.	.	.
4F#	.	8gg#L]	.	8cc#L]	.	8eeL]	.	.	.
.	.	8ff#J	.	8cc#J	.	16cc#L	.	.	.
.	.	.	.	.	.	16bJJ	.	.	.
=60	=60	=60	=60	=60	=60	=60	=60	=60	=60
8.dL	.	8.eeL	.	8.f#L	.	8.aL	.	2r	.
[16dJk	.	[16eeJk	.	[16f#Jk	.	[16aJk	.	.	.
8dL]	.	8eeL]	.	8f#L]	.	8aL]	.	.	.
8d'J	.	8ee'J	.	8f#'J	.	8a'J	.	.	.
2r	.	2r	.	4c#	.	4f#	f	4f#	f
.	.	.	.	4e	.	4g#	.	4g#	.
=61:|!|:	=61:|!|:	=61:|!|:	=61:|!|:	=61:|!|:	=61:|!|:	=61:|!|:	=61:|!|:	=61:|!|:	=61:|!|:
4A	f	8.aL	f	8.eL	f	8.aL	f	1r	.
.	.	[16aJk	.	[16eJk	.	[16aJk	.	.	.
4A	.	8aL]	.	8eL]	.	8aL]	.	.	.
.	.	8aJ	.	8eJ	.	16bL	.	.	.
.	.	.	.	.	.	16cc#JJ	.	.	.
4A	.	8.aL	.	8.eL	.	8.eeL	.	.	.
.	.	[16aJk	.	[16eJk	.	[16eeJk	.	.	.
4A	.	8aL]	.	8eL]	.	8eeL]	.	.	.
.	.	8aJ	.	8eJ	.	16cc#L	.	.	.
.	.	.	.	.	.	16bJJ	.	.	.
=62	=62	=62	=62	=62	=62	=62	=62	=62	=62
4d	.	8.ddL	.	8.f#L	.	8.aL	.	1r	.
.	.	[16ddJk	.	[16f#Jk	.	[16aJk	.	.	.
4d	.	8ddL]	.	8f#L]	.	8aL]	.	.	.
.	.	8ddJ	.	8f#J	.	16bL	.	.	.
.	.	.	.	.	.	16cc#JJ	.	.	.
4d	.	8.ddL	.	8.aL	.	8.eeL	.	.	.
.	.	[16ddJk	.	[16aJk	.	[16eeJk	.	.	.
4d	.	8ddL]	.	8aL]	.	8eeL]	.	.	.
.	.	8ddJ	.	8aJ	.	16cc#L	.	.	.
.	.	.	.	.	.	16bJJ	.	.	.
=63	=63	=63	=63	=63	=63	=63	=63	=63	=63
4F#	.	8.ff#L	.	8.aL	.	8.aL	.	1r	.
.	.	[16ff#Jk	.	[16aJk	.	[16aJk	.	.	.
4F#	.	8ff#L]	.	8aL]	.	8aL]	.	.	.
.	.	8ff#J	.	8aJ	.	16bL	.	.	.
.	.	.	.	.	.	16cc#JJ	.	.	.
4F#	.	8.ff#L	.	8.cc#L	.	8.eeL	.	.	.
.	.	[16ff#Jk	.	[16cc#Jk	.	[16eeJk	.	.	.
4F#	.	8ff#L]	.	8cc#L]	.	8eeL]	.	.	.
.	.	8ff#J	.	8cc#J	.	16cc#L	.	.	.
.	.	.	.	.	.	16bJJ	.	.	.
=64	=64	=64	=64	=64	=64	=64	=64	=64	=64
4d	.	8.ddL	.	8.f#L	.	8.aL	.	1r	.
.	.	[16ddJk	.	[16f#Jk	.	[16aJk	.	.	.
4d	.	8ddL]	.	8f#L]	.	8aL]	.	.	.
.	.	8ddJ	.	8f#J	.	16bL	.	.	.
.	.	.	.	.	.	16eeJJ	.	.	.
4e	.	8.eeL	.	8.g#L	.	2cc#	.	.	.
.	.	[16eeJk	.	[16g#Jk	.	.	.	.	.
4e	.	8eeL]	.	8g#L]	.	.	.	.	.
.	.	8eeJ	.	8g#J	.	.	.	.	.
=65:|!|:	=65:|!|:	=65:|!|:	=65:|!|:	=65:|!|:	=65:|!|:	=65:|!|:	=65:|!|:	=65:|!|:	=65:|!|:
8.F#L	f	8.aL	f	8.c#L	f	8.aL	f	1r	.
[16F#Jk	.	[16aJk	.	[16c#Jk	.	[16aJk	.	.	.
8F#L]	.	8aL]	.	8c#L]	.	8aL]	.	.	.
8F#J	.	8aJ	.	16dL	.	16bL	.	.	.
.	.	.	.	16eJJ	.	16cc#JJ	.	.	.
8.F#L	.	8.aL	.	8.aL	.	8.eeL	.	.	.
[16F#Jk	.	[16aJk	.	[16aJk	.	[16eeJk	.	.	.
8F#L]	.	8aL]	.	8aL]	.	8eeL]	.	.	.
8F#J	.	8aJ	.	16eL	.	16cc#L	.	.	.
.	.	.	.	16dJJ	.	16bJJ	.	.	.
=66	=66	=66	=66	=66	=66	=66	=66	=66	=66
8.dL	.	8.ddL	.	8.c#L	f	8.aL	.	1r	.
[16dJk	.	[16ddJk	.	[16c#Jk	.	[16aJk	.	.	.
8dL]	.	8ddL]	.	8c#L]	.	8aL]	.	.	.
8dJ	.	8ddJ	.	16dL	.	16bL	.	.	.
.	.	.	.	16eJJ	.	16cc#JJ	.	.	.
8.dL	.	8.ddL	.	8.aL	.	8.eeL	.	.	.
[16dJk	.	[16ddJk	.	[16aJk	.	[16eeJk	.	.	.
8dL]	.	8ddL]	.	8aL]	.	8eeL]	.	.	.
8dJ	.	8ddJ	.	16eL	.	16cc#L	.	.	.
.	.	.	.	16dJJ	.	16bJJ	.	.	.
=67	=67	=67	=67	=67	=67	=67	=67	=67	=67
8.AL	.	8.aL	.	8.c#L	f	8.aL	.	1r	.
[16AJk	.	[16aJk	.	[16c#Jk	.	[16aJk	.	.	.
8AL]	.	8aL]	.	8c#L]	.	8aL]	.	.	.
8AJ	.	8aJ	.	16dL	.	16bL	.	.	.
.	.	.	.	16eJJ	.	16cc#JJ	.	.	.
8.AL	.	8.aL	.	8.aL	.	8.eeL	.	.	.
[16AJk	.	[16aJk	.	[16aJk	.	[16eeJk	.	.	.
8AL]	.	8aL]	.	8aL]	.	8eeL]	.	.	.
8AJ	.	8aJ	.	16eL	.	16cc#L	.	.	.
.	.	.	.	16dJJ	.	16bJJ	.	.	.
=68	=68	=68	=68	=68	=68	=68	=68	=68	=68
8.AL	.	8.eL	.	8.c#L	.	8.aL	.	1r	.
[16AJk	.	[16eJk	.	[16c#Jk	.	[16aJk	.	.	.
8AL]	.	8eL]	.	8c#L]	.	8aL]	.	.	.
8AJ	.	8eJ	.	16dL	.	16bL	.	.	.
.	.	.	.	16aJJ	.	16eeJJ	.	.	.
8.G#L	.	8.eL	.	2e	.	2cc#	.	.	.
[16G#Jk	.	[16eJk	.	.	.	.	.	.	.
8G#L]	.	8eL]	.	.	.	.	.	.	.
8G#J	.	8eJ	.	.	.	.	.	.	.
=69:|!	=69:|!	=69:|!	=69:|!	=69:|!	=69:|!	=69:|!	=69:|!	=69:|!	=69:|!
8.AL	.	8.eL	.	8.c#L	.	8.aL	.	1r	.
[16AJk	.	[16eJk	.	[16c#Jk	.	[16aJk	.	.	.
8AL]	.	8eL]	.	8c#L]	.	8aL]	.	.	.
8AJ	.	8eJ	.	16dL	.	16bL	.	.	.
.	.	.	.	16aJJ	.	16eeJJ	.	.	.
8.EL	.	8.eL	.	2e	.	2cc#	.	.	.
[16EJk	.	[16eJk	.	.	.	.	.	.	.
8EL]	.	8eL]	.	.	.	.	.	.	.
8EJ	.	8eJ	.	.	.	.	.	.	.
=70!|:	=70!|:	=70!|:	=70!|:	=70!|:	=70!|:	=70!|:	=70!|:	=70!|:	=70!|:
*M4/4	*	*M4/4	*	*M4/4	*	*M4/4	*	*M4/4	*
8A	ff	8cc#	ff	8e	ff	8a	ff	1r	.
4A	.	4cc#	.	4e	.	4a	.	.	.
8d	.	8a	.	8f#	.	8a	.	.	.
4d	.	4a	.	4f#	.	4a	.	.	.
8AL	.	8cc#L	.	8eL	.	8aL	.	.	.
[8AJ	.	[8cc#J	.	[8eJ	.	[8aJ	.	.	.
=71	=71	=71	=71	=71	=71	=71	=71	=71	=71
*M3/4	*	*M3/4	*	*M3/4	*	*M3/4	*	*M3/4	*
8AL]	.	8cc#L]	.	8eL]	.	8aL]	.	2.r	.
8dJ	.	8aJ	.	8f#J	.	8aJ	.	.	.
4d	.	4a	.	4f#	.	4a	.	.	.
8eL	.	8bL	.	8eL	.	8aL	.	.	.
8eJ	.	8bJ	.	8eJ	.	8aJ	.	.	.
=72:|!	=72:|!	=72:|!	=72:|!	=72:|!	=72:|!	=72:|!	=72:|!	=72:|!	=72:|!
*M4/4	*	*M4/4	*	*M4/4	*	*M4/4	*	*M4/4	*
8A	.	8cc#	.	8e	.	8a	.	1r	.
4A	.	4cc#	.	4e	.	4a	.	.	.
8d	.	8a	.	8f#	.	8a	.	.	.
4d	.	4a	.	4f#	.	4a	.	.	.
8AL	.	8cc#L	.	8eL	.	8aL	.	.	.
[8AJ	.	[8cc#J	.	[8eJ	.	[8aJ	.	.	.
=73	=73	=73	=73	=73	=73	=73	=73	=73	=73
*M3/4	*	*M3/4	*	*M3/4	*	*M3/4	*	*M3/4	*
8AL]	.	8cc#L]	.	8eL]	.	8aL]	.	2.r	.
8dJ	.	8aJ	.	8f#J	.	8aJ	.	.	.
4d	.	4a	.	4f#	.	4a	.	.	.
8eL	.	8bL	.	8eL	.	8aL	.	.	.
8eJ	.	8bJ	.	8eJ	.	8aJ	.	.	.
=74||	=74||	=74||	=74||	=74||	=74||	=74||	=74||	=74||	=74||
*M4/4	*	*M4/4	*	*M4/4	*	*M4/4	*	*M4/4	*
8A	.	8cc#	.	8e	.	8a	.	1r	.
4A	.	4cc#	.	4e	.	4a	.	.	.
8d	.	8a	.	8f#	.	8a	.	.	.
4d	.	4a	.	4f#	.	4a	.	.	.
8AL	.	8cc#L	.	8eL	.	8aL	.	.	.
[8AJ	.	[8cc#J	.	[8eJ	.	[8aJ	.	.	.
=75	=75	=75	=75	=75	=75	=75	=75	=75	=75
8AL]	.	8cc#L]	.	8eL]	.	8aL]	.	1r	.
8dJ	.	8aJ	.	8f#J	.	8aJ	.	.	.
4d	.	4a	.	4f#	.	4a	.	.	.
8eL	.	8bL	.	8eL	.	8cc#L	.	.	.
8e	.	8b	.	8e	.	8dd	.	.	.
8e	.	8b	.	8e	.	8cc#	.	.	.
8eJ	.	8bJ	.	8eJ	.	8bJ	.	.	.
=76	=76	=76	=76	=76	=76	=76	=76	=76	=76
4A	.	4e	.	4c#	.	4a	.	1r	.
4r	.	4r	.	4r	.	4r	.	.	.
2r	.	2r	.	2r	.	2r	.	.	.
==	==	==	==	==	==	==	==	==	==
*-	*-	*-	*-	*-	*-	*-	*-	*-	*-
